X:1
T:O that the learned poets-Gibbons
T:James Gibb editions
T:#
%%score { 1 | 2 } { 3 | 4 } 5
L:1/8
Q:1/4=100
M:2/2
K:Eb
V:1 treble nm="Soprano 1" snm="S"
V:2 treble 
V:3 treble-8 nm="Tenor 1" snm="T"
V:4 treble-8 
V:5 bass nm="Bass" snm="B"
V:1
!f!"^O that the learned poets""^Orlando Gibbons\n(1583-1625)" B8 | c4 d4 | e6 d2 | c4 B4 | %4
w: O|that the|learn- ed|po- ets|
[M:2/2] B6 B2 | A4 F4 | E2 E3 F G2 | A2 F2 B2 G2 | c6 B2 | c2 d2 e4- | e4 d4 | c4 z2 f2- | %12
w: of this|time, this|time, O that the|learn- ed, learn- ed|po- ets|of this time,|* this|time, of|
 f (ede dcBA) | G2 c4 =B2 | c4 z4 |[M:2/2] z8 | z2 F2 G2 A2 | B6 B2 | =A3 B G2 A2 | B4 z4 | %20
w: * this * * * * * *|time, of this|time||Who in a|love- sick|line so well can|speak,|
 z4 z2 e2 | d3 e c2 d2 | e4 _d4 | c3 B A2 A2 | G4 G4 | F6 G2 | =A2 B2 B2 A2 |!>(! B8!>)! | %28
w: who|in a love- sick|line so|well can speak, who|in a|love- sick|line so well can|speak,|
 z4 z2!mf! A2 | F4 B4 | A3 (G FE F2) | G4 z2 B2 | e4 c2 f2- | fedc B2 e2 | d4 c4 | d2 e2 c4- | %36
w: Would|not con-|sume good * * *|wit, con-|sume good wit|* in hate- ful rhyme, good|wit in|hate- ful rhyme,|
 c4 c2 d2- | dc c4 =B2 | c2 c2 F4- | F2 E2 E4- | E4 D4 | E6"^cresc." F2 | G4 G4 | G8 | G4 A4- | %45
w: * good wit|* in hate- ful|rhyme, But with|* deep care|* some|bet- ter|sub- ject|find,|some bet\-|
 A4 G4 | F4 F4 | E4 z2!f! B2 | EFGA BB e2- | e(d c2) BB c2- | c(B A2) G2 F2 | F2 E2 F3 G | %52
w: * ter|* ject|find. For|if their mu- sic please in earth\-|* ly * things, in earth\-|* ly * things, for|if their mu- sic|
 =A2 B2 F2 G2 | C2 D2 E2 B2- | BA G3 (F E2) | F2 G2 A4 | z8 | z8 | z8 | z2"^sostenuto" B2 c2 d2 | %60
w: please in earth- ly,|earth- ly things, please|* in earth- ly, *|earth- ly things,||||How would it|
 e6 d2 | c6 B2 | (A2 B2) c4 | B2 B2 d2 e2 | f4 e4 | d6 c2 | (B2 c2) _d4 | c4[Q:1/4=92] B4- | %68
w: sound if|strung with|heaven\- * ly|strings, how would it|sound if|strung with|heaven\- * ly|strings, heaven\-|
[Q:1/4=88] B2[Q:1/4=86] (A2[Q:1/4=82] F4) |[Q:1/4=80] !fermata!G8 |] %70
w: * ly *|strings?|
V:2
 z2!f! E3 F G2 | A2 F2 B3 A | G3 (F GA B2) | A4 F4 |[M:2/2] E4 B4 | c4 d4 | e6 d2 | c4 B4 | %8
w: O that the|learn- ed po- ets|of this * * *|time, this|time, O|that the|learn- ed|po- ets,|
 z2 E3 F G2 | A2 F2 G2 A2 | B2 G2 F2 F2 | G4 =A4 | B6 f2 | e4 d4 | G4 z2 B2 |[M:2/2] c2 d2 e2 c2 | %16
w: O that the|learn- ed po- ets|of thìs time, the|learn- ed|po- ets|of this|time, Who|in a love- sick|
 d2 d2 e4- | e2 e2 d4 | z4 z2 e2 | d3 e c2 d2 | e4 z2 E2 | B3 G A2 F2 | G3 A F2 G2 | A3 B c2 c2 | %24
w: line so well\-|* can speak,|who|in a love- sick|line, who|in a love- sick|line so well can|speak, so well can|
 B4 z2 B2 | Bcde f4- | f2 (ed) c2 c2 |!>(! d4 z2!>)!!mf! e2 | c4 z2 f2 | d3 d d2 e2 | c2 c2 B4 | %31
w: speak, who|in a love- sick line|* so * well can|speak, Would|not con-|sume good wit in|hate- ful rhyme,|
 z2 B2 G4 | G2 c3 B=AG | F4 G2 c2- | cB B4 =A2 | B4 _A4 | G2 G2 F2 f2 | e4 d4 | G2 (AB) c2 c2 | %39
w: con- sume|good wit in hate- ful|rhyme, good wit|* in hate- ful|rhyme, in|hate- ful rhyme, But|with deep|care some * bet- ter|
 B8- | B4 B4 | B2 B2"^cresc." e4- | e4 c4 | d4 g4- | g4 f4- | f2 f2 e4- | e4 d4 | e2!f! B4 G2- | %48
w: sub\-|* ject|find, But with|* deep|care some|* bet\-|* ter sub\-|* ject|find. For if|
 G(F E2) F2 G2 | A4 z4 | z8 | z2 B2 de f2- | fe d3 (c B2) | =A2 B2 G4 | z2 B2 EFGA | BB e3 (d c2) | %56
w: * their * mu- sic|please,||for if their mu\-|* sic please in *|earth- ly things,|for if their mu- sic|please in earth- ly *|
 BB c3 (B A2) | G2 c2 B4- | B4 A4 | G4 z4 | z2"^sostenuto" E2 F2 G2 | A6 G2 | F4 E4 | D3 E F4 | %64
w: things, in earth- ly *|things, in earth\-|* ly|things,|How would it|sound if|strung with|heaven- ly strings,|
 z2 F2 G2 A2 | B6 A2 | G2 G2 F4- | F4 B,4 | B,8- | !fermata!B,8 |] %70
w: how would it|sound if|strung with heaven\-|* ly|strings~?||
V:3
 z8 | z8 | z4!f! B4 | c4 d4 |[M:2/2][K:treble-8] e6 d2 | c4 B4 | z8 | z8 | z8 | z8 | z2 B3 c d2 | %11
w: ||O|that the|learn- ed|po- ets,|||||O that the|
 e2 c2 f2 F2 | B4 F4 | G8 | z2 E3 F G2 |[M:2/2][K:treble-8] A2 F2 G3 G | F4 E4 | F4 z2 B2 | %18
w: learn- ed po- ets|of this|time,|O that the|learn- ed po- ets|of this|time, Who|
 f3 d e2 c2 | B2 B2 F2 B2 | G3 F G2 A2 | B2 B2 F4 | z8 | z2 A2 ABcd | e8 | d4 d4- | d2 (cB c4) | %27
w: in a love- sick|line, who in a|love- sick line so|well can speak,||who in a love- sick|line|so well|* can * *|
 B8 | z2!mf! c2 c2 c2 | B8 | z8 | z8 | z8 | z8 | z4 z2 F2 | B2 G2 A3 B | c3 B =A2 B2 | G8 | %38
w: speak,|Would not con-|sume,|||||would|not con- sume good|wit in hate- ful|rhyme,|
 G4 A4- | A4 G4 | F8 | G8 |"^cresc." G2 G2 c4- | c4 =B4 | c4 A4 | F2 F2 G2 A2 | B4 z2!f! B2 | %47
w: But with|* deep|care|some|bet- ter sub\-|* ject|find, some|bet- ter sub- ject|find. For|
 EFGA BB e2- | e(d c2) B4 | z4 z2 e2 | ABcd e2 c2 | B8 | z8 | z2 B2 EFGA | BB e3 (d c2) | %55
w: if their mu- sic please in earth\-|* ly * things,|their|mu- sic please in earth- ly|things,||for if their mu- sic|please in earth- ly *|
 B3 B cdef | g2 c2 e2 A2 | BB A4 G2 | F4"^sostenuto" (E2 F2) | G6 F2 | E4 B4 | E2 E2 F2 G2 | %62
w: things, for if their mu- sic|please in earth- ly|things, in earth- ly|things, How *|would it|sound if|strung with heaven- ly,|
 A6 G2 | F8 | z8 | z2 F2 G2 A2 | B6 B2 | A4 G4 | F6 F2 | !fermata!E8 |] %70
w: heaven- ly|strings,||how would it|sound if|strung with|heaven- ly|strings?|
V:4
 z8 | z8 | z2!f! E3 F G2 | A2 F2 B3 A |[M:2/2][K:treble-8] G2 G2 E4 | e2 f4 f2 | g2 G2 c2 B2 | %7
w: ||O that the|learn- ed po- ets|of this time,|the learn- ed|po- ets of this|
 A4 z2 e2 | c3 B A2 e2 | A4 G4 | F8 | z8 | z4 B4 | c4 d4 | e6 d2 |[M:2/2][K:treble-8] c4 B4- | %16
w: time, the|learn- ed po- ets|of this|time,||O|that the|learn- ed|po- ets|
 B2 A2 G4 | F8 | z4 z2 e2 | f3 g a2 f2 | e2 B2 B2 c2 | F4 z2 B2 | B3 c A2 B2 | E4 z4 | z8 | %25
w: * of this|time,|Who|in a love- sick|line so well can|speak, who|in a love- sick|line||
 z2 B2 B (cde) |!>(! f8 |!mf! f4 g4!>)! | e4 f4 | z2 f2 g4 | f2 e4 d2 | e4 z2 e2 | c2 c2 f3 e | %33
w: so well can * *|speak,|Would not|con- sume|good wit|in hate- ful|rhyme, would|not con- sume good|
 d2 B2 e2 c2 | d3 e f4 | f2 g3 f f2- | f2 =e2 f4 | g2 g3 (f d2) | e4 c4 | d4 e4 | f8 | %41
w: wit, good wit in|hate- ful rhyme,|good wit in hate\-|* ful rhyme,|in hate\- ful *|rhyme, But|with deep|care|
 B4"^cresc." c4- | c4 e4 | d4 d4 | c8 | B4 B4- | B2 A2 F2 f2 | g4 f2 e2- | e2 e2 d2!f! B2 | %49
w: some bet\-|* ter|sub- ject|find,|but with|* deep care some|bet- ter sub\-|* ject find. For|
 cdef g2 c2 | e2 A2 BB A2- | A2 G2 F4 | z2 f2 B (cde) | f4 z4 | z8 | z8 | z2 e2 ABcd | %57
w: if their mu- sic please in|earth- ly things, in earth\-|* ly things,|in earth- ly * *|things,|||for if their mu- sic|
 ee f3 e e2- | e2 d2 c4 | B4 E2"^sostenuto" B2 | c3 c F2 B2 | c3 B A2 B2 | c8 | z2 F2 B2 c2 | %64
w: please in earth- ly things,|* in earth-|ly things, How|would it sound if|strung with heaven- ly|strings.|if strung with|
 d4 c4 | B8 | z4 z2 B2 | c2 d2 e4- | e4 d4 | !fermata!e8 |] %70
w: heaven- ly|strings,|if|strung with heaven\-|* ly|strings?|
V:5
 z8 | z8 | z8 | z4 z2!f! B,,2 |[M:2/2] E,3 F, G,2 G,2 | A,2 F,2 B,2 B,,2 | E,6 E,2 | F,4 G,4 | %8
w: |||O|that the learn- ed|po- ets of this|time, the|learn- ed|
 A,6 G,2 | F,4 E,4 | B,,8 | z8 | z2 B,,3 C, D,2 | E,2 C,2 G,2 G,,2 | C,6 B,,2 | %15
w: po- ets|of this|time,||O that the|learn- ed po- ets|of this|
[M:2/2] A,,4 G,,2 A,,2 | B,,8- | B,,8 | z8 | z4 z2 B,,2 | E,3 D, E,2 C,2 | B,,4 z2 B,,2 | %22
w: time, of this|time,|||Who|in a love- sick|line, who|
 E,3 C, _D,2 B,,2 | A,,4 z4 | z2 E,2 E, (F,G,A,) | B,6 (=A,G,) |!>(! F,8 | z2!>)!!mf! B,2 G,2 G,2 | %28
w: in a love- sick|line|so well, so * *|well can *|speak,|Would not con-|
 A,4 F,4 | B,4 G,4 | A,4 B,4 | E,4 z4 | z8 | z8 | z8 | z8 | z2 C,2 F,2 D,2 | E,3 F, G,2 G,,2 | %38
w: sume good|wit in|hate- ful|rhyme,|||||good wit in|hate- ful rhyme, But|
 C,4 A,,4 | B,,8- | B,,4 B,,4 | E,6"^cresc." D,2 | C,4 C,4 | G,6 F,2 | =E,4 F,4 | D,4 _E,4 | B,,8 | %47
w: with deep|care|* some|bet- ter|sub- ject|find, some|bet- ter|sub- ject|find.|
 z8 | z4 z2!f! E,2 | A,,B,,C,D, E,E, A,2- | A,(G, F,2) E,2 F,2 | D,2 E,2 B,,C,D,E, | %52
w: |For|if their mu- sic please in earth\-|* ly * things, for|if, for if their mu- sic|
 F,F, B,3 (A, G,2) | F,2 z2 z4 | z8 | z2 E,2 A,,B,,C,D, | E,E, A,3 (G, F,2) | %57
w: please in earth- ly *|things,||for if their mu- sic|please in earth- ly *|
 E,2"^sostenuto" A,,2 B,,4- | B,,2 B,,2 C,2 D,2 | E,6 D,2 | C,4 B,,4 | A,,8 | A,,8 | B,,8 | B,,8 | %65
w: things, How would|* it sound if|strung with|heaven- ly|strings,|with|heaven-|ly|
 B,,8- | B,,8 | z2 F,,2 G,,2 A,,2 | B,,6 B,,2 | !fermata!E,8 |] %70
w: strings,||if strung with|heaven- ly|strings?|

